assets/icons/calc.svg

<svg width="25" height="25" viewBox="0 0 25 25" fill="none" xmlns="http://www.w3.org/2000/svg">
<path d="M17 4.98639C18.1046 4.98639 19 5.846 19 6.90639V18.4264C19 19.4868 18.1046 20.3464 17 20.3464H8.33333C7.22876 20.3464 6.33333 19.4868 6.33333 18.4264V6.90639C6.33333 5.846 7.22876 4.98639 8.33333 4.98639H17ZM9.33333 17.1464C8.78105 17.1464 8.33333 17.5762 8.33333 18.1064C8.33333 18.6366 8.78105 19.0664 9.33333 19.0664C9.88562 19.0664 10.3333 18.6366 10.3333 18.1064C10.3333 17.5762 9.88562 17.1464 9.33333 17.1464ZM12.6667 17.1464C12.1144 17.1464 11.6667 17.5762 11.6667 18.1064C11.6667 18.6366 12.1144 19.0664 12.6667 19.0664C13.219 19.0664 13.6667 18.6366 13.6667 18.1064C13.6667 17.5762 13.219 17.1464 12.6667 17.1464ZM16 17.1464C15.4477 17.1464 15 17.5762 15 18.1064C15 18.6366 15.4477 19.0664 16 19.0664C16.5523 19.0664 17 18.6366 17 18.1064C17 17.5762 16.5523 17.1464 16 17.1464ZM9.33333 13.9464C8.78105 13.9464 8.33333 14.3761 8.33333 14.9064C8.33333 15.4366 8.78105 15.8664 9.33333 15.8664C9.88562 15.8664 10.3333 15.4366 10.3333 14.9064C10.3333 14.3761 9.88562 13.9464 9.33333 13.9464ZM12.6667 13.9464C12.1144 13.9464 11.6667 14.3761 11.6667 14.9064C11.6667 15.4366 12.1144 15.8664 12.6667 15.8664C13.219 15.8664 13.6667 15.4366 13.6667 14.9064C13.6667 14.3761 13.219 13.9464 12.6667 13.9464ZM16 13.9464C15.4477 13.9464 15 14.3761 15 14.9064C15 15.4366 15.4477 15.8664 16 15.8664C16.5523 15.8664 17 15.4366 17 14.9064C17 14.3761 16.5523 13.9464 16 13.9464ZM9 6.26639C8.26362 6.26639 7.66667 6.83947 7.66667 7.54639V11.3864C7.66667 12.0933 8.26362 12.6664 9 12.6664H16.3334C17.0697 12.6664 17.6667 12.0933 17.6667 11.3864V7.54639C17.6667 6.83947 17.0697 6.26639 16.3334 6.26639H9Z" fill="white"/>
</svg>

<svg xmlns="http://www.w3.org/2000/svg" width="25" height="25" fill="none" viewBox="0 0 25 25"><path fill="#fff" d="M17 4.986c1.105 0 2 .86 2 1.92v11.52c0 1.06-.895 1.92-2 1.92H8.333c-1.104 0-2-.86-2-1.92V6.906c0-1.06.896-1.92 2-1.92zm-7.667 12.16c-.552 0-1 .43-1 .96s.448.96 1 .96c.553 0 1-.43 1-.96s-.447-.96-1-.96m3.334 0c-.553 0-1 .43-1 .96s.447.96 1 .96 1-.43 1-.96-.448-.96-1-.96m3.333 0c-.552 0-1 .43-1 .96s.448.96 1 .96 1-.43 1-.96-.448-.96-1-.96m-6.667-3.2c-.552 0-1 .43-1 .96s.448.96 1 .96c.553 0 1-.43 1-.96s-.447-.96-1-.96m3.334 0c-.553 0-1 .43-1 .96s.447.96 1 .96 1-.43 1-.96-.448-.96-1-.96m3.333 0c-.552 0-1 .43-1 .96s.448.96 1 .96 1-.43 1-.96-.448-.96-1-.96m-7-7.68c-.736 0-1.333.573-1.333 1.28v3.84c0 .707.597 1.28 1.333 1.28h7.333c.737 0 1.334-.573 1.334-1.28v-3.84c0-.707-.597-1.28-1.334-1.28z"/></svg>
